images_sukapura_svg/cmd/lc_pagedialog.svg

<svg viewBox="0 0 24 24" xmlns="http://www.w3.org/2000/svg" xmlns:xlink="http://www.w3.org/1999/xlink"><linearGradient id="a" gradientUnits="userSpaceOnUse" x1="13" x2="13" y1="23" y2="5"><stop offset="0" stop-color="#f7f7f7"/><stop offset=".22222222" stop-color="#fff"/><stop offset=".83333331" stop-color="#fff"/><stop offset="1" stop-color="#f7f7f7"/></linearGradient><linearGradient id="b" gradientUnits="userSpaceOnUse" x1="19.5" x2="19.5" y1="21.500001" y2="14.5"><stop offset="0" stop-color="#cfcfcf"/><stop offset=".07142864" stop-color="#e7e7e7"/><stop offset=".07142864" stop-color="#fff"/><stop offset=".5" stop-color="#f3f3f3"/><stop offset=".93333334" stop-color="#f9f9f9"/><stop offset=".93333334" stop-color="#fcfcfc"/><stop offset="1" stop-color="#fff"/></linearGradient><linearGradient id="c" gradientUnits="userSpaceOnUse" x1="19.428571" x2="19.428571" y1="18.25" y2="21.285715"><stop offset="0" stop-color="#f8f8f8"/><stop offset="1" stop-color="#fff"/></linearGradient><linearGradient id="d" gradientUnits="userSpaceOnUse" x1="15" x2="17.000001" y1="7" y2="4.999999"><stop offset="0" stop-color="#fff"/><stop offset=".77967989" stop-color="#f1f1f1"/><stop offset="1" stop-color="#d5d5d5"/></linearGradient><radialGradient id="e" cx="17" cy="6.555555" gradientTransform="matrix(1.4285714 -.00000006 .00000006 1.4285714 -7.285714 -4.365078)" gradientUnits="userSpaceOnUse" r="7"><stop offset="0" stop-color="#d7d7d7"/><stop offset=".29999998" stop-color="#f7f7f7"/><stop offset="1" stop-color="#fff"/></radialGradient><g transform="translate(-1)"><path d="m5 3v18h14v-14.2705905l-4-3.7294095z" fill="url(#e)"/><path d="m5 2c-.554 0-1 .446-1 1v18c0 .554.446 1 1 1h14c.554 0 1-.446 1-1v-10.109375-3.6412209-.2079239c0-.4506799.09887-.4265951-.604637-1.0675892l-3.307389-3.2370335c-.709525-.7368575-.711223-.7368575-1.094804-.7368575h-.331557-.661613zm0 1h9v4c0 .554.446 1 1 1h4v13h-14z" fill="#98989d"/><path d="m15 7h4l-4-4z" fill="#fff" fill-rule="evenodd"/><path d="m15 3 4 4h-4z" fill="url(#d)"/></g><g transform="translate(-3 -1)"><path d="m16 13h7v10h-7z" fill="url(#a)"/><path d="m16 12c-.554 0-1 .446-1 1v10c0 .554.446 1 1 1h7c.554 0 1-.446 1-1v-10c0-.554-.446-1-1-1zm0 1h7v10h-7z" fill="#848489"/><g stroke-width=".607143"><path d="m17 14h5v8h-5z" fill="#626262"/><path d="m17.5 14.5h4v7h-4z" fill="url(#b)"/><path d="m18 16h3v2h-3z" fill="#dadada"/><path d="m18 18h3v3h-3z" fill="url(#c)"/></g></g></svg>

<?xml version="1.0" encoding="UTF-8" standalone="no"?>
<svg
   xmlns:dc="http://purl.org/dc/elements/1.1/"
   xmlns:cc="http://creativecommons.org/ns#"
   xmlns:rdf="http://www.w3.org/1999/02/22-rdf-syntax-ns#"
   xmlns:svg="http://www.w3.org/2000/svg"
   xmlns="http://www.w3.org/2000/svg"
   xmlns:sodipodi="http://sodipodi.sourceforge.net/DTD/sodipodi-0.dtd"
   xmlns:inkscape="http://www.inkscape.org/namespaces/inkscape"
   viewBox="0 0 24 24"
   version="1.1"
   id="svg24"
   sodipodi:docname="lc_pagedialog.svg"
   inkscape:version="0.92.3 (unknown)"
   inkscape:export-filename="/home/rizmut/Dokumen/Rizmut/Github/libreoffice-style-sukapura/images_sukapura/cmd/lc_pagedialog.png"
   inkscape:export-xdpi="96"
   inkscape:export-ydpi="96">
  <metadata
     id="metadata30">
    <rdf:RDF>
      <cc:Work
         rdf:about="">
        <dc:format>image/svg+xml</dc:format>
        <dc:type
           rdf:resource="http://purl.org/dc/dcmitype/StillImage" />
        <dc:title></dc:title>
      </cc:Work>
    </rdf:RDF>
  </metadata>
  <defs
     id="defs28">
    <linearGradient
       id="a-3"
       gradientUnits="userSpaceOnUse"
       x1="11"
       x2="11"
       y1="21"
       y2="3"
       gradientTransform="translate(2,2)">
      <stop
         offset="0"
         stop-color="#f7f7f7"
         id="stop2-6" />
      <stop
         offset=".22222222"
         stop-color="#fff"
         id="stop4-7" />
      <stop
         offset=".83333331"
         stop-color="#fff"
         id="stop6-5" />
      <stop
         offset="1"
         stop-color="#f7f7f7"
         id="stop8" />
    </linearGradient>
    <linearGradient
       id="b-3"
       gradientUnits="userSpaceOnUse"
       x1="12.117647"
       x2="12.117647"
       y1="17.352942"
       y2="5.8235288"
       gradientTransform="matrix(0.60714286,0,0,0.60714286,12.142857,10.964286)">
      <stop
         offset="0"
         stop-color="#cfcfcf"
         id="stop11-5" />
      <stop
         offset="0.07142864"
         stop-color="#e7e7e7"
         id="stop13-6" />
      <stop
         offset="0.07142864"
         stop-color="#fff"
         id="stop15" />
      <stop
         offset=".5"
         stop-color="#f3f3f3"
         id="stop17" />
      <stop
         offset="0.93333334"
         stop-color="#f9f9f9"
         id="stop19" />
      <stop
         offset="0.93333334"
         stop-color="#fcfcfc"
         id="stop21" />
      <stop
         offset="1"
         stop-color="#fff"
         id="stop23" />
    </linearGradient>
    <linearGradient
       id="c"
       gradientUnits="userSpaceOnUse"
       x1="12"
       x2="12"
       y1="12"
       y2="17"
       gradientTransform="matrix(0.60714286,0,0,0.60714286,12.142857,10.964286)">
      <stop
         offset="0"
         stop-color="#f8f8f8"
         id="stop26" />
      <stop
         offset="1"
         stop-color="#fff"
         id="stop28" />
    </linearGradient>
  </defs>
  <sodipodi:namedview
     pagecolor="#ffffff"
     bordercolor="#666666"
     borderopacity="1"
     objecttolerance="10"
     gridtolerance="10"
     guidetolerance="10"
     inkscape:pageopacity="0"
     inkscape:pageshadow="2"
     inkscape:window-width="1366"
     inkscape:window-height="699"
     id="namedview26"
     showgrid="true"
     inkscape:zoom="9.8333333"
     inkscape:cx="9.1576358"
     inkscape:cy="0.24137604"
     inkscape:window-x="0"
     inkscape:window-y="0"
     inkscape:window-maximized="1"
     inkscape:current-layer="svg24">
    <inkscape:grid
       type="xygrid"
       id="grid824"
       spacingx="0.5"
       spacingy="0.5"
       empspacing="2" />
  </sodipodi:namedview>
  <linearGradient
     id="a"
     gradientUnits="userSpaceOnUse"
     x1="15"
     x2="17.0000008"
     y1="7"
     y2="4.9999992">
    <stop
       offset="0"
       stop-color="#fff"
       id="stop2" />
    <stop
       offset=".77967989"
       stop-color="#f1f1f1"
       id="stop4" />
    <stop
       offset="1"
       stop-color="#d5d5d5"
       id="stop6" />
  </linearGradient>
  <radialGradient
     id="b"
     cx="17"
     cy="6.555555"
     gradientTransform="matrix(1.4285714,-6e-8,6e-8,1.4285714,-7.285714,-4.365078)"
     gradientUnits="userSpaceOnUse"
     r="7">
    <stop
       offset="0"
       stop-color="#d7d7d7"
       id="stop9" />
    <stop
       offset=".29999998"
       stop-color="#f7f7f7"
       id="stop11" />
    <stop
       offset="1"
       stop-color="#fff"
       id="stop13" />
  </radialGradient>
  <g
     id="g844"
     transform="translate(-1)">
    <path
       id="path16"
       d="M 5,3 V 21 H 19 V 6.7294095 L 15,3 Z"
       style="fill:url(#b)"
       inkscape:connector-curvature="0" />
    <path
       id="path18"
       d="M 5,2 C 4.446,2 4,2.446 4,3 v 18 c 0,0.554 0.446,1 1,1 h 14 c 0.554,0 1,-0.446 1,-1 V 10.890625 7.2494041 7.0414802 C 20,6.5908003 20.09887,6.6148851 19.395363,5.973891 L 16.087974,2.7368575 C 15.378449,2 15.376751,2 14.99317,2 H 14.661613 14 Z m 0,1 h 9 v 4 c 0,0.554 0.446,1 1,1 h 4 V 21 H 5 Z"
       inkscape:connector-curvature="0"
       style="fill:#98989d" />
    <path
       id="path20"
       d="m 15,7 h 4 L 15,3 Z"
       inkscape:connector-curvature="0"
       style="fill:#ffffff;fill-rule:evenodd" />
    <path
       id="path22"
       d="m 15,3 4,4 h -4 z"
       style="fill:url(#a)"
       inkscape:connector-curvature="0" />
  </g>
  <g
     id="g895"
     transform="translate(-3,-1)">
    <path
       id="path31"
       d="m 16,13 h 7 v 10 h -7 z"
       style="fill:url(#a-3)"
       inkscape:connector-curvature="0"
       sodipodi:nodetypes="ccccc" />
    <path
       id="path33"
       d="m 16,12 c -0.554,0 -1,0.446 -1,1 v 10 c 0,0.554 0.446,1 1,1 h 7 c 0.554,0 1,-0.446 1,-1 V 13 c 0,-0.554 -0.446,-1 -1,-1 z m 0,1 h 7 v 10 h -7 z"
       style="fill:#848489"
       inkscape:connector-curvature="0"
       sodipodi:nodetypes="sssssssssccccc" />
    <path
       id="path35"
       d="m 17,14 h 5 v 8 h -5 z"
       style="fill:#626262;stroke-width:0.60714287"
       inkscape:connector-curvature="0"
       sodipodi:nodetypes="ccccc" />
    <path
       id="path37"
       d="m 17.5,14.5 h 4 v 7 h -4 z"
       style="fill:url(#b-3);stroke-width:0.60714287"
       inkscape:connector-curvature="0"
       sodipodi:nodetypes="ccccc" />
    <path
       id="path39"
       d="m 18,16 h 3 v 2 h -3 z"
       style="fill:#dadada;stroke-width:0.60714287"
       inkscape:connector-curvature="0"
       sodipodi:nodetypes="ccccc" />
    <path
       id="path41"
       d="m 18,18 h 3 v 3 h -3 z"
       style="fill:url(#c);stroke-width:0.60714287"
       inkscape:connector-curvature="0"
       sodipodi:nodetypes="ccccc" />
  </g>
</svg>
